X:88
T:Savior When In Dust To Thee
%%stretchlast false
M:4/4
L:1/4
K:Eb clef=C1
"^vi"[C,E,G,C] "^vi¹"[E,,G,C]/ "^V/vi"[G,,G,=B,D]/ "^vi"[C,G,CE]/ "^vii"[C,G,DF]/ "^I"[E,,G,EG]/ [F,,G,EG]/ | "^vi²"[G,,G,CE] "^III"[G,,G,=B,D]/ "^III7"[G,,F,=B,D]/ "^vi"[C,E,G,C]2 | [C,G,CE] "^V/vi²"[D,G,=B,D] "^vi¹"[E,G,C] "^V/vi"[F,G,=B,] | "^vi¹"[E,G,C]/ "^iii"[D,G,D]/ "^vi"[C,G,CE] "^V/vi"[G,,G,=B,D]2 | "^vi"[C,E,G,C]/ "^vii"[D,F,G,C]/ "^vi¹"[E,G,C]/ "^V/vi²"[D,G,=B,D]/ "^vi"[C,G,CE]/ "^vii"[C,G,DF]/ "^I"[E,,G,EG]/ [F,,G,EG]/ | "^vi²"[G,,G,CE] "^III"[G,,D,=B,D]/ "^III7"[G,,F,=B,D]/ "^vi"[C,E,G,C]2 | "^V/vi"[G,,G,=B,D] "^vi"[C,G,CE]/ "^V"[B,,B,DF]/ "^I"[E,B,EG] "^vii°¹"[F,A,DF] | "^vi²"[G,CE] "^III"[G,,G,=B,D]/ "^III7"[G,,F,=B,D]/ "^vi"[C,E,G,C]2 | "^IV"[A,,E,A,C] "^I"[E,,E,G,B,] "^IV"[A,,E,A,C]/ "^IVmaj7³"[G,,E,A,C]/ "^vii°¹"[F,,F,A,D] | "^I"[E,,G,B,E] "^iii¹"[B,,B,DG]/ "^V7"[B,,A,DF]/ "^I"[E,,G,B,E]2 | "^vi"[C,G,CE] "^V/vi"[G,,G,=B,D] "^vi"[C,G,CE] "^V"[B,,B,DF]/ "^V¹"[D,B,F]/ | "^I"[E,B,G]/ [E,G,B,G]/ "^iii²"[D,G,DB]/ "^VII7"[D,_G,C=A]/ "^iii"[G,,G,B,G]2 | "^IV"[A,,E,Cc] [A,Ec]/ "^vi+"[A,Dc]/ "^I¹"[G,B,EB] "^I"[E,B,G] | "^vi"[C,G,CE] "^ii¹"[A,,CF] "^V/vi"[G,,=B,DG]2 | "^vi¹"[E,G,C]/ "^ii"[F,A,C]/ "^vi¹"[E,G,C]/ "^♭vi°¹"[D,F,=B,D]/ "^vi"[C,G,CE]/ "^vii"[C,G,DF]/ "^I"[E,,G,EG]/ [F,,G,EG]/ | "^vi²"[G,,G,CE] "^III"[G,,D,=B,D]/4 [G,,E,=B,D]/4 "^III7"[G,,F,=B,D]/ "^vi"[C,E,G,C]2 |]
